static/images/mobile/copyright/wikipedia-tagline-as.svg

<?xml version="1.0" encoding="UTF-8"?>
<svg width="73px" height="18px" viewBox="0 0 73 18" version="1.1" xmlns="http://www.w3.org/2000/svg" xmlns:xlink="http://www.w3.org/1999/xlink">
    <title>as-tagline</title>
    <g id="Page-1" stroke="none" stroke-width="1" fill="none" fill-rule="evenodd">
        <path d="M7.20285261,5.16323296 L7.20285261,14.7194929 C8.17274168,15.3898574 9.02852615,16.3454834 9.75594295,17.2012678 L9.01426307,17.7717908 C8.4437401,17.0586371 7.81616482,16.3454834 7.16006339,15.7892235 C6.9889065,17.1299525 6.19017433,18 4.73534073,18 C3.30903328,18 2.42472266,17.1014263 2.42472266,15.9461173 C2.42472266,14.6767036 3.38034865,13.8209192 4.66402536,13.8209192 C5.19175911,13.8209192 5.69096672,13.9350238 6.16164818,14.1347068 L6.16267047,13.146451 C5.8832048,11.7181041 4.76635979,10.1876825 3.4088748,9.7844691 C3.15213946,10.5974643 2.65293185,10.8969889 2.23930269,10.8969889 C1.74009509,10.8969889 1.3977813,10.5689382 1.3977813,10.0697306 C1.3977813,9.49920761 1.82567353,8.97147385 2.55309033,8.82884311 L2.55309033,8.61489699 C2.55309033,6.96038035 1.4548336,5.69096672 0.812995246,5.34865293 L0.812995246,5.16323296 L0,5.16323296 L0,4.2503962 L22.0079239,4.2503962 L22.0079239,5.16323296 L7.20285261,5.16323296 Z M4.73534073,14.6909667 C3.87955626,14.6909667 3.42313788,15.2329635 3.42313788,15.9461173 C3.42313788,16.6307448 3.97939778,17.1299525 4.7496038,17.1299525 C5.70522979,17.1299525 6.16164818,16.3312203 6.16164818,15.2614897 L6.16164818,15.0903328 C5.69096672,14.8335975 5.22028526,14.6909667 4.73534073,14.6909667 Z M14.7337559,5.91917591 C15.7464342,5.91917591 16.4453249,6.41838352 16.7448494,7.13153724 C17.2012678,6.50396197 17.8431062,6.13312203 18.7274168,6.13312203 C20.110935,6.13312203 21.1378764,7.01743265 21.1378764,8.45800317 C21.1378764,10.0269414 20.0966719,10.7971474 18.9128368,10.7971474 C18.4849445,10.7971474 18.0427892,10.7115689 17.6862124,10.540412 L17.9286846,9.64183835 C18.2709984,9.7844691 18.5419968,9.82725832 18.8415214,9.82725832 C19.526149,9.82725832 20.0966719,9.34231379 20.0966719,8.47226624 C20.0966719,7.64500792 19.5832013,7.10301109 18.7131537,7.10301109 C17.6006339,7.10301109 17.1870048,8.10142631 16.5736926,9.17115689 C16.4453249,9.39936609 16.274168,9.6133122 16.0744849,9.81299525 C16.8161648,10.1695721 17.4722662,10.8684628 17.4722662,11.9096672 C17.4722662,13.3359746 16.4310618,14.4057052 14.6624406,14.4057052 C11.7527734,14.4057052 9.98415214,11.481775 9.17115689,7.83042789 L10.1125198,7.38827258 C10.911252,11.110935 12.4944532,13.4215531 14.6767036,13.4215531 C15.8177496,13.4215531 16.4167987,12.7083994 16.4167987,11.881141 C16.4167987,11.2107765 15.9746434,10.6545166 15.318542,10.4120444 C15.0475436,10.5832013 14.748019,10.7400951 14.4057052,10.8969889 L13.7068146,10.155309 C15.0475436,9.57052298 15.8748019,8.90015848 15.8748019,7.90174326 C15.8748019,7.30269414 15.4754358,6.86053883 14.748019,6.86053883 C13.8351823,6.86053883 13.2789223,7.58795563 13.0507132,8.20126783 L12.1806656,7.67353407 C12.5229794,6.66085578 13.4928685,5.91917591 14.7337559,5.91917591 Z M6.16164818,5.16323296 L2.21077655,5.16323296 L2.21077655,5.22028526 C2.66719493,5.67670365 3.55150555,6.94611727 3.55150555,8.62916006 L3.55150555,8.87163233 C4.76386688,9.12836767 5.74801902,10.1267829 6.21870048,11.0110935 L6.24722662,10.9968304 C6.21870048,10.3264659 6.16164818,9.48494453 6.16164818,8.42947702 L6.16164818,5.16323296 Z M72.0689196,4.2503962 L72.0689196,5.16323296 L70.3288245,5.16323296 L70.3288245,12.5657686 L70.8993475,12.9080824 L70.1576676,13.6069731 L64.5380163,10.141046 L64.5380163,9.14263074 L66.6489513,7.35974643 L64.4667009,5.44849445 L64.4667009,5.16323296 L62.2987136,5.16323296 L62.2987136,13.40729 L61.2575092,13.40729 L61.2575092,6.34706815 C61.2575092,5.5340729 60.8724062,5.16323296 60.1164632,5.16323296 L55.8945932,5.16323296 L55.8945932,6.47543582 C57.962739,6.51822504 59.118048,7.84469097 59.118048,9.24247227 C59.118048,10.3549921 58.4904727,11.2393027 57.6774775,11.681458 L56.9500607,10.9255151 C57.5633729,10.6687797 58.0911066,10.0126783 58.0911066,9.22820919 C58.0911066,8.22979398 57.3209006,7.47385103 55.8945932,7.44532488 L55.8945932,12.451664 L56.4793792,12.9223455 L55.666384,13.5499208 L50.702834,9.45641838 L50.702834,8.54358162 C51.9009323,7.51664025 53.3415028,6.74643423 54.8676518,6.53248811 L54.8676518,5.16323296 L49.1481589,5.16323296 C48.392216,6.13312203 47.9072714,7.73058637 47.9072714,9.22820919 C47.9072714,10.911252 48.5063206,12.1521395 49.8185234,12.7511886 L49.2907897,13.59271 C47.7075884,12.9793978 46.866067,11.3106181 46.866067,9.22820919 C46.866067,7.74484945 47.3367485,6.21870048 47.9643237,5.16323296 L44.6980797,5.16323296 L44.6980797,13.9350238 L45.325655,14.2630745 L44.5839751,15.0047544 L39.8201082,12.5229794 L39.8201082,11.4389857 C40.6758927,10.7543582 42.3446724,9.81299525 43.6711383,9.34231379 L43.6711383,7.13153724 C43.6711383,5.83359746 43.1861938,5.17749604 42.2305678,5.17749604 C41.4318356,5.17749604 40.8042604,5.71949287 40.8042604,6.74643423 C40.8042604,7.73058637 41.4318356,8.28684628 42.3731985,8.28684628 C42.4873031,8.28684628 42.6299339,8.2725832 42.7725646,8.25832013 L42.7725646,9.15689382 C42.65846,9.18541997 42.5015662,9.19968304 42.3589355,9.19968304 C41.4175726,9.19968304 40.7472081,8.8858954 40.2907897,8.15847861 C39.8771605,8.90015848 39.3636898,9.21394612 38.3795377,9.21394612 C38.1941177,9.21394612 38.0086978,9.19968304 37.8375409,9.17115689 L37.8375409,8.22979398 C38.0086978,8.2725832 38.2083808,8.28684628 38.3652746,8.28684628 C39.4492683,8.28684628 39.8201082,7.6022187 39.8201082,6.73217116 C39.8201082,5.81933439 39.3209006,5.16323296 38.2369069,5.16323296 L35.9976042,5.16323296 L35.9976042,12.4944532 L36.5823903,12.8795563 L35.8549735,13.6069731 L30.3066375,9.96988906 L30.3066375,9.01426307 C31.1338958,8.18700475 33.2305678,6.78922345 34.9421367,6.23296355 L34.9421367,5.16323296 L28.1529133,5.16323296 L28.1529133,13.40729 L27.1117088,13.40729 L27.1117088,5.16323296 L25.4001399,5.16323296 L25.4001399,4.2503962 L27.1117088,4.2503962 L27.1117088,3.05229794 C27.1117088,1.4548336 28.3240702,0 30.4920575,0 C32.6743079,0 34.5142445,1.08399366 35.4413443,1.92551506 L34.8137691,2.66719493 C33.8153539,1.78288431 32.2606787,0.969889065 30.5063206,0.969889065 C28.9373824,0.969889065 28.1529133,1.99683043 28.1529133,3.18066561 L28.1529133,4.2503962 L38.2939592,4.2503962 C39.1925329,4.2503962 39.8771605,4.54992076 40.3193158,5.29160063 C40.7186819,4.60697306 41.317731,4.2503962 42.1592524,4.2503962 C43.1434046,4.2503962 43.5855599,4.73534073 43.7852429,5.00633914 L43.8422952,5.00633914 C43.8137691,4.9207607 43.6854014,4.17908082 43.6854014,3.25198098 L43.6854014,2.83835182 L44.6980797,2.83835182 L44.6980797,4.2503962 L60.2876201,4.2503962 C61.0007738,4.2503962 61.2860353,4.59270998 61.4001399,4.7496038 L61.4714553,4.7496038 C61.4286661,4.63549921 61.2717722,4.06497623 61.2717722,3.25198098 L61.2717722,2.83835182 L62.2987136,2.83835182 L62.2987136,4.2503962 L72.0689196,4.2503962 Z M43.6711383,10.3835182 C42.644197,10.8114105 41.5602033,11.4247227 40.8185234,11.9096672 L43.7281906,13.4500792 L43.7852429,13.4500792 C43.7139275,12.437401 43.6711383,12.0237718 43.6711383,10.8969889 L43.6711383,10.3835182 Z M67.4334204,7.97305864 L65.5221684,9.59904913 L69.3446724,11.9809826 L69.4017247,11.9809826 C69.3446724,11.1251981 69.3161462,10.3692552 69.3018832,9.59904913 L67.4334204,7.97305864 Z M34.9421367,7.27416799 C33.7725646,7.70206022 32.0324695,8.80031696 31.347842,9.48494453 L34.999189,11.866878 L35.0562413,11.866878 C34.9706629,10.911252 34.9421367,9.92709984 34.9421367,9 L34.9421367,7.27416799 Z M54.8676518,7.53090333 C53.6695535,7.70206022 52.5427707,8.37242472 51.7440385,9.02852615 L54.910441,11.6957211 L54.9674933,11.6957211 C54.8819149,10.6687797 54.8676518,9.7274168 54.8676518,8.82884311 L54.8676518,7.53090333 Z M69.3018832,5.16323296 L65.6077469,5.16323296 L65.6077469,5.22028526 L65.7218515,5.32012678 L69.3018832,8.4437401 L69.3018832,5.16323296 Z" id="as-tagline" fill="#000000" fill-rule="nonzero"></path>
    </g>
</svg>

<svg xmlns="http://www.w3.org/2000/svg" width="73" height="18"><path fill="#000" fill-rule="nonzero" d="M7.203 5.163v9.556c.97.67 1.826 1.626 2.553 2.482l-.742.57c-.57-.712-1.198-1.426-1.854-1.982C6.99 17.13 6.19 18 4.735 18c-1.426 0-2.31-.899-2.31-2.054 0-1.27.955-2.125 2.239-2.125.528 0 1.027.114 1.498.314v-.989c-.279-1.428-1.396-2.958-2.753-3.362-.257.813-.756 1.113-1.17 1.113-.499 0-.841-.328-.841-.827 0-.57.428-1.099 1.155-1.241v-.214c0-1.655-1.098-2.924-1.74-3.266v-.186H0V4.25h22.008v.913H7.203Zm-2.468 9.528c-.855 0-1.312.542-1.312 1.255 0 .685.556 1.184 1.327 1.184.955 0 1.412-.799 1.412-1.869v-.17c-.471-.257-.942-.4-1.427-.4Zm9.999-8.772c1.012 0 1.711.5 2.01 1.213.457-.628 1.1-.999 1.983-.999 1.384 0 2.41.884 2.41 2.325 0 1.569-1.04 2.34-2.224 2.34-.428 0-.87-.086-1.227-.258l.243-.898c.342.142.613.185.913.185.684 0 1.255-.485 1.255-1.355 0-.827-.514-1.369-1.384-1.369-1.112 0-1.526.998-2.14 2.068-.128.228-.299.442-.499.642.742.357 1.398 1.055 1.398 2.097 0 1.426-1.04 2.496-2.81 2.496-2.91 0-4.678-2.924-5.49-6.576l.94-.442c.8 3.723 2.382 6.034 4.565 6.034 1.14 0 1.74-.714 1.74-1.54 0-.671-.442-1.227-1.098-1.47-.271.171-.571.328-.913.485l-.7-.742c1.342-.584 2.169-1.255 2.169-2.253 0-.6-.4-1.041-1.127-1.041-.913 0-1.47.727-1.697 1.34l-.87-.527c.342-1.013 1.312-1.755 2.553-1.755Zm-8.572-.756H2.21v.057c.456.457 1.34 1.726 1.34 3.41v.242c1.213.256 2.197 1.255 2.668 2.14l.028-.015c-.028-.67-.085-1.512-.085-2.568V5.163Zm65.907-.913v.913h-1.74v7.403l.57.342-.741.699-5.62-3.466v-.998l2.111-1.783-2.182-1.912v-.285h-2.168v8.244h-1.041v-7.06c0-.813-.386-1.184-1.142-1.184h-4.221v1.312c2.068.043 3.223 1.37 3.223 2.767a2.76 2.76 0 0 1-1.44 2.44l-.728-.756c.613-.257 1.141-.913 1.141-1.698 0-.998-.77-1.754-2.196-1.783v5.007l.584.47-.813.628-4.963-4.094v-.912c1.198-1.027 2.639-1.798 4.165-2.012V5.163h-5.72c-.756.97-1.24 2.568-1.24 4.065 0 1.683.598 2.924 1.91 3.523l-.527.842c-1.583-.614-2.425-2.282-2.425-4.365 0-1.483.47-3.01 1.098-4.065h-3.266v8.772l.628.328-.742.742-4.764-2.482v-1.084c.856-.685 2.525-1.626 3.851-2.097v-2.21c0-1.298-.485-1.955-1.44-1.955-.8 0-1.427.542-1.427 1.57 0 .984.628 1.54 1.57 1.54.113 0 .256-.014.399-.029v.899a1.843 1.843 0 0 1-.414.043c-.941 0-1.612-.314-2.068-1.042-.414.742-.927 1.056-1.911 1.056-.186 0-.371-.014-.542-.043V8.23c.17.043.37.057.527.057 1.084 0 1.455-.685 1.455-1.555 0-.913-.5-1.569-1.583-1.569h-2.24v7.331l.585.386-.727.727-5.548-3.637v-.956c.827-.827 2.924-2.225 4.635-2.781v-1.07h-6.79v8.244h-1.04V5.163H25.4V4.25h1.712V3.052c0-1.597 1.212-3.052 3.38-3.052 2.182 0 4.022 1.084 4.95 1.926l-.628.741C33.815 1.783 32.26.97 30.506.97c-1.569 0-2.353 1.027-2.353 2.21v1.07h10.141c.899 0 1.583.3 2.025 1.042.4-.685.999-1.042 1.84-1.042.984 0 1.427.485 1.626.756h.057c-.028-.085-.157-.827-.157-1.754v-.414h1.013V4.25h15.59c.713 0 .998.343 1.112.5h.071c-.042-.115-.2-.685-.2-1.498v-.414H62.3V4.25h9.77ZM43.67 10.384a18.855 18.855 0 0 0-2.852 1.526l2.91 1.54h.056c-.071-1.013-.114-1.426-.114-2.553v-.513Zm23.762-2.41-1.91 1.625 3.822 2.382h.057a48.34 48.34 0 0 1-.1-2.382l-1.869-1.626Zm-32.49-.7c-1.17.428-2.91 1.526-3.595 2.21l3.651 2.383h.057A32.535 32.535 0 0 1 34.942 9V7.274Zm19.925.257c-1.198.171-2.325.841-3.124 1.498l3.166 2.667h.057a33.815 33.815 0 0 1-.1-2.867V7.53Zm14.434-2.368h-3.694v.057l.114.1 3.58 3.124v-3.28Z"/></svg>
